packages/styles/icons/mic-disabled-icon.svg

<svg fill="currentColor" height="16" viewBox="0 0 16 16" width="16" xmlns="http://www.w3.org/2000/svg"><path d="m12.2266 11.5195c.6848-.8216 1.1347-1.84606 1.2463-2.9701.0272-.27479-.1734-.51967-.4482-.54695-.2748-.02729-.5197.17336-.5469.44815-.0881.88718-.4341 1.6986-.9618 2.3583l-1.0706-1.07063c.3492-.49041.5546-1.09036.5546-1.73827v-5c0-1.65685-1.34315-3-3-3-1.65686 0-3 1.34315-3 3v1.29289l-3.64645-3.646443c-.19526-.195263-.511841-.195263-.707103 0-.195263.195262-.195263.511843 0 .707103l13.999953 14.00005c.1953.1952.5119.1952.7072 0 .1952-.1953.1952-.5119 0-.7072z"/><path d="m8 12.5c.68323 0 1.33093-.1523 1.911-.4248l.7432.7432c-.6492.3583-1.37843.5893-2.1542.6592v1.5224h2c.2761 0 .5.2239.5.5s-.2239.5-.5.5h-5c-.27614 0-.5-.2239-.5-.5s.22386-.5.5-.5h2v-1.5224c-2.62212-.2363-4.71317-2.3126-4.97287-4.9282-.02728-.27479.17337-.51967.44816-.54695.27479-.02729.51967.17336.54695.44815.22572 2.2735 2.14465 4.0494 4.47776 4.0494z"/><path d="m8.74305 10.9073-3.74305-3.74309v.83579c0 1.65685 1.34314 3 3 3 .25647 0 .50543-.0322.74305-.0927z"/></svg>

<svg width="16" height="16" viewBox="0 0 16 16" fill="none" xmlns="http://www.w3.org/2000/svg">
<path d="M12.2266 11.5195C12.9114 10.6979 13.3613 9.67344 13.4729 8.5494C13.5001 8.27461 13.2995 8.02973 13.0247 8.00245C12.7499 7.97516 12.505 8.17581 12.4778 8.4506C12.3897 9.33778 12.0437 10.1492 11.516 10.8089L10.4454 9.73827C10.7946 9.24786 11 8.64791 11 8V3C11 1.34315 9.65685 0 8 0C6.34314 0 5 1.34315 5 3V4.29289L1.35355 0.646447C1.15829 0.451184 0.841709 0.451184 0.646447 0.646447C0.451184 0.841709 0.451184 1.15829 0.646447 1.35355L14.6464 15.3536C14.8417 15.5488 15.1583 15.5488 15.3536 15.3536C15.5488 15.1583 15.5488 14.8417 15.3536 14.6464L12.2266 11.5195Z" fill="black"/>
<path d="M8 12.5C8.68323 12.5 9.33093 12.3477 9.911 12.0752L10.6542 12.8184C10.005 13.1767 9.27577 13.4077 8.5 13.4776V15H10.5C10.7761 15 11 15.2239 11 15.5C11 15.7761 10.7761 16 10.5 16H5.5C5.22386 16 5 15.7761 5 15.5C5 15.2239 5.22386 15 5.5 15H7.5V13.4776C4.87788 13.2413 2.78683 11.165 2.52713 8.5494C2.49985 8.27461 2.7005 8.02973 2.97529 8.00245C3.25008 7.97516 3.49496 8.17581 3.52224 8.4506C3.74796 10.7241 5.66689 12.5 8 12.5Z" fill="black"/>
<path d="M8.74305 10.9073L5 7.16421V8C5 9.65685 6.34314 11 8 11C8.25647 11 8.50543 10.9678 8.74305 10.9073Z" fill="black"/>
</svg>
